svg/color/ice.svg

<?xml version="1.0" encoding="UTF-8" ?>
<!DOCTYPE svg PUBLIC "-//W3C//DTD SVG 1.1//EN" "http://www.w3.org/Graphics/SVG/1.1/DTD/svg11.dtd">
<svg width="250pt" height="250pt" viewBox="0 0 250 250" version="1.1" xmlns="http://www.w3.org/2000/svg">
<g id="#ffffffff">
<path fill="#ffffff" opacity="1.00" d=" M 0.00 0.00 L 250.00 0.00 L 250.00 250.00 L 0.00 250.00 L 0.00 0.00 M 70.62 56.31 C 69.58 55.85 68.53 56.82 67.69 57.33 C 58.95 69.14 49.24 80.28 40.82 92.29 C 39.18 92.60 40.00 95.20 40.91 96.16 C 64.88 128.17 89.19 159.94 113.14 191.96 C 115.24 194.51 116.84 197.54 119.62 199.45 L 119.65 199.85 C 120.34 199.97 121.72 200.21 122.41 200.33 C 123.94 200.48 125.48 200.44 127.02 200.42 C 129.27 199.87 131.49 198.82 132.81 196.84 C 157.84 163.54 183.09 130.39 208.00 97.00 C 208.26 96.45 208.78 95.36 209.04 94.81 L 209.84 94.60 C 209.83 94.25 209.80 93.55 209.79 93.20 C 200.41 81.31 191.44 69.07 181.70 57.47 C 180.87 56.78 179.94 56.21 179.02 55.67 L 178.58 55.91 C 170.37 55.33 162.26 53.96 154.12 52.82 C 140.79 51.55 127.41 47.85 113.97 50.42 C 99.51 52.34 85.03 54.47 70.62 56.31 Z" />
</g>
<g id="#5ebff5ff">
<path fill="#5ebff5" opacity="1.00" d=" M 70.62 56.31 C 85.03 54.47 99.51 52.34 113.97 50.42 C 127.41 47.85 140.79 51.55 154.12 52.82 C 162.26 53.96 170.37 55.33 178.58 55.91 C 176.12 57.85 172.96 58.26 169.98 58.83 C 157.19 61.36 144.42 63.97 131.65 66.60 C 128.69 67.18 125.67 68.14 122.64 67.53 C 108.42 64.64 94.18 61.80 79.97 58.88 C 76.79 58.29 73.57 57.68 70.62 56.31 Z" />
<path fill="#5ebff5" opacity="1.00" d=" M 99.19 97.21 C 107.80 87.52 116.14 77.58 124.89 68.01 C 136.78 81.41 148.34 95.11 160.38 108.37 C 159.89 109.37 159.10 109.82 158.01 109.70 C 134.86 109.73 111.72 109.62 88.57 109.80 C 91.62 105.21 95.76 101.49 99.19 97.21 Z" />
</g>
<g id="#b0e6ffff">
<path fill="#b0e6ff" opacity="1.00" d=" M 67.69 57.33 C 68.53 56.82 69.58 55.85 70.62 56.31 C 73.57 57.68 76.79 58.29 79.97 58.88 C 94.18 61.80 108.42 64.64 122.64 67.53 C 125.67 68.14 128.69 67.18 131.65 66.60 C 144.42 63.97 157.19 61.36 169.98 58.83 C 172.96 58.26 176.12 57.85 178.58 55.91 L 179.02 55.67 C 179.94 56.21 180.87 56.78 181.70 57.47 C 178.99 60.96 178.01 65.34 176.39 69.37 C 171.59 82.71 166.15 95.83 161.66 109.27 C 177.62 105.02 193.14 99.26 209.04 94.81 C 208.78 95.36 208.26 96.45 208.00 97.00 C 183.09 130.39 157.84 163.54 132.81 196.84 C 131.49 198.82 129.27 199.87 127.02 200.42 C 137.40 172.72 147.94 145.07 158.39 117.40 C 159.30 114.68 160.80 112.07 161.11 109.20 C 160.93 108.99 160.56 108.57 160.38 108.37 C 148.34 95.11 136.78 81.41 124.89 68.01 C 116.14 77.58 107.80 87.52 99.19 97.21 C 95.76 101.49 91.62 105.21 88.57 109.80 C 89.05 111.45 89.61 113.07 90.20 114.68 C 100.15 140.54 109.74 166.55 119.67 192.42 C 120.69 195.02 121.61 197.65 122.41 200.33 C 121.72 200.21 120.34 199.97 119.65 199.85 L 119.62 199.45 C 119.82 196.76 117.62 194.81 116.43 192.62 C 98.05 163.66 79.49 134.80 61.06 105.87 C 59.84 103.99 58.69 102.07 57.70 100.05 C 67.82 102.90 77.66 106.86 87.93 109.08 C 82.56 93.37 76.19 77.99 70.66 62.33 C 70.06 60.86 69.69 59.20 68.56 58.02 L 67.69 57.33 Z" />
</g>
<g id="#57b5ddff">
<path fill="#57b5dd" opacity="1.00" d=" M 67.69 57.33 L 68.56 58.02 C 65.49 71.99 60.98 85.62 57.38 99.46 C 51.99 98.97 46.81 96.95 41.74 95.15 C 41.38 94.21 41.08 93.26 40.82 92.29 C 49.24 80.28 58.95 69.14 67.69 57.33 Z" />
</g>
<g id="#7ecaffff">
<path fill="#7ecaff" opacity="1.00" d=" M 68.56 58.02 C 69.69 59.20 70.06 60.86 70.66 62.33 C 76.19 77.99 82.56 93.37 87.93 109.08 C 77.66 106.86 67.82 102.90 57.70 100.05 L 57.38 99.46 C 60.98 85.62 65.49 71.99 68.56 58.02 Z" />
<path fill="#7ecaff" opacity="1.00" d=" M 176.39 69.37 C 178.01 65.34 178.99 60.96 181.70 57.47 C 191.44 69.07 200.41 81.31 209.79 93.20 C 209.80 93.55 209.83 94.25 209.84 94.60 L 209.04 94.81 C 193.14 99.26 177.62 105.02 161.66 109.27 C 166.15 95.83 171.59 82.71 176.39 69.37 Z" />
<path fill="#7ecaff" opacity="1.00" d=" M 160.38 108.37 C 160.56 108.57 160.93 108.99 161.11 109.20 C 160.80 112.07 159.30 114.68 158.39 117.40 C 147.94 145.07 137.40 172.72 127.02 200.42 C 125.48 200.44 123.94 200.48 122.41 200.33 C 121.61 197.65 120.69 195.02 119.67 192.42 C 109.74 166.55 100.15 140.54 90.20 114.68 C 89.61 113.07 89.05 111.45 88.57 109.80 C 111.72 109.62 134.86 109.73 158.01 109.70 C 159.10 109.82 159.89 109.37 160.38 108.37 Z" />
</g>
<g id="#70c0e2ff">
<path fill="#70c0e2" opacity="1.00" d=" M 40.91 96.16 C 40.00 95.20 39.18 92.60 40.82 92.29 C 41.08 93.26 41.38 94.21 41.74 95.15 C 46.81 96.95 51.99 98.97 57.38 99.46 L 57.70 100.05 C 58.69 102.07 59.84 103.99 61.06 105.87 C 79.49 134.80 98.05 163.66 116.43 192.62 C 117.62 194.81 119.82 196.76 119.62 199.45 C 116.84 197.54 115.24 194.51 113.14 191.96 C 89.19 159.94 64.88 128.17 40.91 96.16 Z" />
</g>
</svg>

<?xml version="1.0" encoding="utf-8"?>
<!-- Generator: Adobe Illustrator 26.0.3, SVG Export Plug-In . SVG Version: 6.00 Build 0)  -->
<svg version="1.1" id="Layer_1" xmlns="http://www.w3.org/2000/svg" xmlns:xlink="http://www.w3.org/1999/xlink" x="0px" y="0px"
	 viewBox="0 0 250 250" style="enable-background:new 0 0 250 250;" xml:space="preserve">
<style type="text/css">
	.st0{fill:#5EBFF5;}
	.st1{fill:#B0E6FF;}
	.st2{fill:#57B5DD;}
	.st3{fill:#7ECAFF;}
	.st4{fill:#70C0E2;}
</style>
<g id="_x23_5ebff5ff">
	<path class="st0" d="M70.6,56.3c14.4-1.8,28.9-4,43.3-5.9c13.4-2.6,26.8,1.1,40.1,2.4c8.1,1.1,16.2,2.5,24.5,3.1
		c-2.5,1.9-5.6,2.3-8.6,2.9c-12.8,2.5-25.6,5.1-38.3,7.8c-3,0.6-6,1.5-9,0.9c-14.2-2.9-28.5-5.7-42.7-8.6
		C76.8,58.3,73.6,57.7,70.6,56.3z"/>
	<path class="st0" d="M99.2,97.2c8.6-9.7,16.9-19.6,25.7-29.2c11.9,13.4,23.4,27.1,35.5,40.4c-0.5,1-1.3,1.4-2.4,1.3
		c-23.1,0-46.3-0.1-69.4,0.1C91.6,105.2,95.8,101.5,99.2,97.2z"/>
</g>
<g id="_x23_b0e6ffff">
	<path class="st1" d="M67.7,57.3c0.8-0.5,1.9-1.5,2.9-1c2.9,1.4,6.2,2,9.3,2.6c14.2,2.9,28.4,5.8,42.7,8.6c3,0.6,6.1-0.3,9-0.9
		c12.8-2.6,25.5-5.2,38.3-7.8c3-0.6,6.1-1,8.6-2.9l0.4-0.2c0.9,0.5,1.8,1.1,2.7,1.8c-2.7,3.5-3.7,7.9-5.3,11.9
		c-4.8,13.3-10.2,26.5-14.7,39.9c16-4.2,31.5-10,47.4-14.5c-0.3,0.6-0.8,1.6-1,2.2c-24.9,33.4-50.2,66.5-75.2,99.8
		c-1.3,2-3.5,3-5.8,3.6c10.4-27.7,20.9-55.3,31.4-83c0.9-2.7,2.4-5.3,2.7-8.2c-0.2-0.2-0.6-0.6-0.7-0.8c-12-13.3-23.6-27-35.5-40.4
		c-8.8,9.6-17.1,19.5-25.7,29.2c-3.4,4.3-7.6,8-10.6,12.6c0.5,1.6,1,3.3,1.6,4.9c10,25.9,19.5,51.9,29.5,77.7c1,2.6,1.9,5.2,2.7,7.9
		c-0.7-0.1-2.1-0.4-2.8-0.5l0-0.4c0.2-2.7-2-4.6-3.2-6.8c-18.4-29-36.9-57.8-55.4-86.7c-1.2-1.9-2.4-3.8-3.4-5.8
		c10.1,2.8,20,6.8,30.2,9C82.6,93.4,76.2,78,70.7,62.3c-0.6-1.5-1-3.1-2.1-4.3L67.7,57.3z"/>
</g>
<g id="_x23_57b5ddff">
	<path class="st2" d="M67.7,57.3l0.9,0.7C65.5,72,61,85.6,57.4,99.5C52,99,46.8,96.9,41.7,95.2c-0.4-0.9-0.7-1.9-0.9-2.9
		C49.2,80.3,59,69.1,67.7,57.3z"/>
</g>
<g id="_x23_7ecaffff">
	<path class="st3" d="M68.6,58c1.1,1.2,1.5,2.8,2.1,4.3c5.5,15.7,11.9,31,17.3,46.8c-10.3-2.2-20.1-6.2-30.2-9l-0.3-0.6
		C61,85.6,65.5,72,68.6,58z"/>
	<path class="st3" d="M176.4,69.4c1.6-4,2.6-8.4,5.3-11.9c9.7,11.6,18.7,23.8,28.1,35.7c0,0.4,0,1.1,0.1,1.4l-0.8,0.2
		c-15.9,4.5-31.4,10.2-47.4,14.5C166.1,95.8,171.6,82.7,176.4,69.4z"/>
	<path class="st3" d="M160.4,108.4c0.2,0.2,0.5,0.6,0.7,0.8c-0.3,2.9-1.8,5.5-2.7,8.2c-10.4,27.7-21,55.3-31.4,83
		c-1.5,0-3.1,0.1-4.6-0.1c-0.8-2.7-1.7-5.3-2.7-7.9c-9.9-25.9-19.5-51.9-29.5-77.7c-0.6-1.6-1.1-3.2-1.6-4.9
		c23.2-0.2,46.3-0.1,69.4-0.1C159.1,109.8,159.9,109.4,160.4,108.4z"/>
</g>
<g id="_x23_70c0e2ff">
	<path class="st4" d="M40.9,96.2c-0.9-1-1.7-3.6-0.1-3.9c0.3,1,0.6,1.9,0.9,2.9c5.1,1.8,10.2,3.8,15.6,4.3l0.3,0.6
		c1,2,2.1,3.9,3.4,5.8c18.4,28.9,37,57.8,55.4,86.7c1.2,2.2,3.4,4.1,3.2,6.8c-2.8-1.9-4.4-4.9-6.5-7.5
		C89.2,159.9,64.9,128.2,40.9,96.2z"/>
</g>
</svg>
